;Generated with Cura_SteamEngine 13.11.2
M109 T0 S220.000000
T0
;Sliced at: Sun 13:55:32
;Basic settings: Layer height: 0.25 Walls: 0.5 Fill: 30
;Print time: #P_TIME#
;Filament used: #F_AMNT#m #F_WGHT#g
;Filament cost: #F_COST#
G21        ;metric values
G90        ;absolute positioning
G28        ;home axes
G92 E0                  ;zero the extruded length
G1 F9000

;Layer count: 178
;LAYER:0
M107
G0 F5940 X43.77 Y61.38 Z0.35
;TYPE:SKIRT
G1 F1800 E0.00000
G1 F1140 X61.38 Y43.77 E0.66001
G1 X64.08 Y43.77 E0.73136
G1 X148.11 Y127.80 E3.87995
G1 X148.11 Y130.50 E3.95130
G1 X130.50 Y148.11 E4.61124
G1 X127.80 Y148.11 E4.68259
G1 X43.77 Y64.08 E7.83118
G1 X43.77 Y61.38 E7.90253
G0 F5940 X47.80 Y62.79
G0 X47.80 Y62.79
G0 X47.37 Y62.73
;TYPE:WALL-OUTER
G1 F1140 X62.73 Y47.37 E8.47798
G1 X144.50 Y129.15 E11.54201
G1 X129.15 Y144.50 E12.11737
G1 X47.37 Y62.73 E15.18140
G0 F5940 X47.93 Y62.42
;TYPE:FILL
G1 F1140 X129.45 Y143.95 E18.23614
G0 F5940 X129.81 Y143.60
G1 F1140 X48.28 Y62.07 E21.29088
G0 F5940 X48.63 Y61.71
G1 F1140 X130.16 Y143.24 E24.34562
G0 F5940 X130.51 Y142.89
G1 F1140 X48.99 Y61.36 E27.40035
G0 F5940 X49.34 Y61.01
G1 F1140 X130.87 Y142.53 E30.45509
G0 F5940 X131.22 Y142.18
G1 F1140 X49.69 Y60.65 E33.50983
G0 F5940 X50.05 Y60.30
G1 F1140 X131.57 Y141.83 E36.56457
G0 F5940 X131.93 Y141.47
G1 F1140 X50.40 Y59.95 E39.61931
G0 F5940 X50.75 Y59.59
G1 F1140 X132.28 Y141.12 E42.67404
G0 F5940 X132.64 Y140.77
G1 F1140 X51.11 Y59.24 E45.72878
G0 F5940 X51.46 Y58.89
G1 F1140 X132.99 Y140.41 E48.78352
G0 F5940 X133.34 Y140.06
G1 F1140 X51.81 Y58.53 E51.83826
G0 F5940 X52.17 Y58.18
G1 F1140 X133.70 Y139.71 E54.89300
G0 F5940 X134.05 Y139.35
G1 F1140 X52.52 Y57.83 E57.94773
G0 F5940 X52.88 Y57.47
G1 F1140 X134.40 Y139.00 E61.00247
G0 F5940 X134.76 Y138.65
G1 F1140 X53.23 Y57.12 E64.05721
G0 F5940 X53.58 Y56.77
G1 F1140 X135.11 Y138.29 E67.11195
G0 F5940 X135.46 Y137.94
G1 F1140 X53.94 Y56.41 E70.16669
G0 F5940 X54.29 Y56.06
G1 F1140 X135.82 Y137.59 E73.22142
G0 F5940 X136.17 Y137.23
G1 F1140 X54.64 Y55.70 E76.27616
G0 F5940 X55.00 Y55.35
G1 F1140 X136.53 Y136.88 E79.33090
G0 F5940 X136.88 Y136.53
G1 F1140 X55.35 Y55.00 E82.38564
G0 F5940 X55.70 Y54.64
G1 F1140 X137.23 Y136.17 E85.44038
G0 F5940 X137.59 Y135.82
G1 F1140 X56.06 Y54.29 E88.49511
G0 F5940 X56.41 Y53.94
G1 F1140 X137.94 Y135.46 E91.54985
G0 F5940 X138.29 Y135.11
G1 F1140 X56.77 Y53.58 E94.60459
G0 F5940 X57.12 Y53.23
G1 F1140 X138.65 Y134.76 E97.65933
G0 F5940 X139.00 Y134.40
G1 F1140 X57.47 Y52.88 E100.71406
G0 F5940 X57.83 Y52.52
G1 F1140 X139.35 Y134.05 E103.76880
G0 F5940 X139.71 Y133.70
G1 F1140 X58.18 Y52.17 E106.82354
G0 F5940 X58.53 Y51.81
G1 F1140 X140.06 Y133.34 E109.87828
G0 F5940 X140.41 Y132.99
G1 F1140 X58.89 Y51.46 E112.93302
G0 F5940 X59.24 Y51.11
G1 F1140 X140.77 Y132.64 E115.98775
G0 F5940 X141.12 Y132.28
G1 F1140 X59.59 Y50.75 E119.04249
G0 F5940 X59.95 Y50.40
G1 F1140 X141.47 Y131.93 E122.09723
G0 F5940 X141.83 Y131.57
G1 F1140 X60.30 Y50.05 E125.15197
G0 F5940 X60.65 Y49.69
G1 F1140 X142.18 Y131.22 E128.20671
G0 F5940 X142.53 Y130.87
G1 F1140 X61.01 Y49.34 E131.26144
G0 F5940 X61.36 Y48.99
G1 F1140 X142.89 Y130.51 E134.31618
G0 F5940 X143.24 Y130.16
G1 F1140 X61.71 Y48.63 E137.37092
G0 F5940 X62.07 Y48.28
G1 F1140 X143.60 Y129.81 E140.42566
G0 F5940 X143.95 Y129.45
G1 F1140 X62.42 Y47.93 E143.48040
G0 F5940 X62.73 Y49.14
;LAYER:1
G0 F9000 X62.67 Y47.80 Z0.60
G0 X62.73 Y47.37
;TYPE:WALL-OUTER
G1 F1320 X144.50 Y129.15 E145.66899
G1 X129.15 Y144.50 E146.07997
G1 X47.37 Y62.73 E148.26856
G1 X62.73 Y47.37 E148.67959
G0 F9000 X62.88 Y47.78
;TYPE:FILL
G1 F1320 X47.78 Y62.88 E149.08394
G0 F9000 X48.13 Y63.24
G1 F1320 X63.24 Y48.13 E149.48831
G0 F9000 X63.59 Y48.48
G1 F1320 X48.48 Y63.59 E149.89266
G0 F9000 X48.84 Y63.95
G1 F1320 X63.95 Y48.84 E150.29701
G0 F9000 X64.30 Y49.19
G1 F1320 X49.19 Y64.30 E150.70138
G0 F9000 X49.54 Y64.65
G1 F1320 X64.65 Y49.54 E151.10573
G0 F9000 X65.01 Y49.90
G1 F1320 X49.90 Y65.01 E151.51010
G0 F9000 X50.25 Y65.36
G1 F1320 X65.36 Y50.25 E151.91447
G0 F9000 X65.71 Y50.60
G1 F1320 X50.60 Y65.71 E152.31883
G0 F9000 X50.96 Y66.07
G1 F1320 X66.07 Y50.96 E152.72318
G0 F9000 X66.42 Y51.31
G1 F1320 X51.31 Y66.42 E153.12755
G0 F9000 X51.66 Y66.77
G1 F1320 X66.77 Y51.67 E153.53190
G0 F9000 X67.13 Y52.02
G1 F1320 X52.02 Y67.13 E153.93626
G0 F9000 X52.37 Y67.48
G1 F1320 X67.48 Y52.37 E154.34062
G0 F9000 X67.83 Y52.73
G1 F1320 X52.73 Y67.83 E154.74498
G0 F9000 X53.08 Y68.19
G1 F1320 X68.19 Y53.08 E155.14934
G0 F9000 X68.54 Y53.43
G1 F1320 X53.43 Y68.54 E155.55369
G0 F9000 X53.79 Y68.90
G1 F1320 X68.89 Y53.79 E155.95806
G0 F9000 X69.25 Y54.14
G1 F1320 X54.14 Y69.25 E156.36241
G0 F9000 X54.49 Y69.60
G1 F1320 X69.60 Y54.49 E156.76678
G0 F9000 X69.96 Y54.85
G1 F1320 X54.85 Y69.96 E157.17113
G0 F9000 X55.20 Y70.31
G1 F1320 X70.31 Y55.20 E157.57550
G0 F9000 X70.66 Y55.55
G1 F1320 X55.55 Y70.66 E157.97986
G0 F9000 X55.91 Y71.02
G1 F1320 X71.02 Y55.91 E158.38422
G0 F9000 X71.37 Y56.26
G1 F1320 X56.26 Y71.37 E158.78858
G0 F9000 X56.62 Y71.72
G1 F1320 X71.72 Y56.62 E159.19294
G0 F9000 X72.08 Y56.97
G1 F1320 X56.97 Y72.08 E159.59730
G0 F9000 X57.32 Y72.43
G1 F1320 X72.43 Y57.32 E160.00166
G0 F9000 X72.78 Y57.68
G1 F1320 X57.67 Y72.78 E160.40602
G0 F9000 X58.03 Y73.14
G1 F1320 X73.14 Y58.03 E160.81037
G0 F9000 X73.49 Y58.38
G1 F1320 X58.38 Y73.49 E161.21474
G0 F9000 X58.74 Y73.84
G1 F1320 X73.84 Y58.74 E161.61909
G0 F9000 X74.20 Y59.09
G1 F1320 X59.09 Y74.20 E162.02345
G0 F9000 X59.44 Y74.55
G1 F1320 X74.55 Y59.44 E162.42781
G0 F9000 X74.91 Y59.80
G1 F1320 X59.80 Y74.91 E162.83217
G0 F9000 X60.15 Y75.26
G1 F1320 X75.26 Y60.15 E163.23653
G0 F9000 X75.61 Y60.51
G1 F1320 X60.50 Y75.61 E163.64088
G0 F9000 X60.86 Y75.97
G1 F1320 X75.97 Y60.86 E164.04525
G0 F9000 X76.32 Y61.21
G1 F1320 X61.21 Y76.32 E164.44960
G0 F9000 X61.56 Y76.67
G1 F1320 X76.67 Y61.56 E164.85397
G0 F9000 X77.03 Y61.92
G1 F1320 X61.92 Y77.03 E165.25832
G0 F9000 X62.27 Y77.38
G1 F1320 X77.38 Y62.27 E165.66268
G0 F9000 X77.73 Y62.63
G1 F1320 X62.62 Y77.73 E166.06704
G0 F9000 X62.98 Y78.09
G1 F1320 X78.09 Y62.98 E166.47139
G0 F9000 X78.44 Y63.33
G1 F1320 X63.33 Y78.44 E166.87576
G0 F9000 X63.69 Y78.80
G1 F1320 X78.80 Y63.69 E167.28013
G0 F9000 X79.15 Y64.04
G1 F1320 X64.04 Y79.15 E167.68449
G0 F9000 X64.39 Y79.50
G1 F1320 X79.50 Y64.39 E168.08885
G0 F9000 X79.86 Y64.75
G1 F1320 X64.75 Y79.86 E168.49321
G0 F9000 X65.10 Y80.21
G1 F1320 X80.21 Y65.10 E168.89756
G0 F9000 X80.56 Y65.45
G1 F1320 X65.45 Y80.56 E169.30192
G0 F9000 X65.81 Y80.92
G1 F1320 X80.92 Y65.81 E169.70628
G0 F9000 X81.27 Y66.16
G1 F1320 X66.16 Y81.27 E170.11064
G0 F9000 X66.51 Y81.62
G1 F1320 X81.62 Y66.52 E170.51500
G0 F9000 X81.98 Y66.87
G1 F1320 X66.87 Y81.98 E170.91937
G0 F9000 X67.22 Y82.33
G1 F1320 X82.33 Y67.22 E171.32374
G0 F9000 X82.68 Y67.58
G1 F1320 X67.58 Y82.68 E171.72809
G0 F9000 X67.93 Y83.04
G1 F1320 X83.04 Y67.93 E172.13245
G0 F9000 X83.39 Y68.28
G1 F1320 X68.28 Y83.39 E172.53681
G0 F9000 X68.64 Y83.75
G1 F1320 X83.74 Y68.64 E172.94116
G0 F9000 X84.10 Y68.99
G1 F1320 X68.99 Y84.10 E173.34553
G0 F9000 X69.34 Y84.45
G1 F1320 X84.45 Y69.34 E173.74988
G0 F9000 X84.81 Y69.70
G1 F1320 X69.70 Y84.81 E174.15425
G0 F9000 X70.05 Y85.16
G1 F1320 X85.16 Y70.05 E174.55860
G0 F9000 X85.51 Y70.40
G1 F1320 X70.40 Y85.51 E174.96296
G0 F9000 X70.76 Y85.87
G1 F1320 X85.87 Y70.76 E175.36732
G0 F9000 X86.22 Y71.11
G1 F1320 X71.11 Y86.22 E175.77168
G0 F9000 X71.46 Y86.57
G1 F1320 X86.57 Y71.47 E176.17604
G0 F9000 X86.93 Y71.82
G1 F1320 X71.82 Y86.93 E176.58039
G0 F9000 X72.17 Y87.28
G1 F1320 X87.28 Y72.17 E176.98476
G0 F9000 X87.63 Y72.53
G1 F1320 X72.53 Y87.63 E177.38911
G0 F9000 X72.88 Y87.99
G1 F1320 X87.99 Y72.88 E177.79347
G0 F9000 X88.34 Y73.23
G1 F1320 X73.23 Y88.34 E178.19783
G0 F9000 X73.58 Y88.69
G1 F1320 X88.69 Y73.59 E178.60219
G0 F9000 X89.05 Y73.94
G1 F1320 X73.94 Y89.05 E179.00655
G0 F9000 X74.29 Y89.40
G1 F1320 X89.40 Y74.29 E179.41091
G0 F9000 X89.75 Y74.65
G1 F1320 X74.65 Y89.75 E179.81527
G0 F9000 X75.00 Y90.11
G1 F1320 X90.11 Y75.00 E180.21963
G0 F9000 X90.46 Y75.35
G1 F1320 X75.35 Y90.46 E180.62398
G0 F9000 X75.71 Y90.82
G1 F1320 X90.81 Y75.71 E181.02834
G0 F9000 X91.17 Y76.06
G1 F1320 X76.06 Y91.17 E181.43270
G0 F9000 X76.41 Y91.52
G1 F1320 X91.52 Y76.41 E181.83706
G0 F9000 X91.88 Y76.77
G1 F1320 X76.77 Y91.88 E182.24142
G0 F9000 X77.12 Y92.23
G1 F1320 X92.23 Y77.12 E182.64577
G0 F9000 X92.58 Y77.47
G1 F1320 X77.47 Y92.58 E183.05014
G0 F9000 X77.83 Y92.94
G1 F1320 X92.94 Y77.83 E183.45449
G0 F9000 X93.29 Y78.18
G1 F1320 X78.18 Y93.29 E183.85886
G0 F9000 X78.53 Y93.64
G1 F1320 X93.64 Y78.54 E184.26321
G0 F9000 X94.00 Y78.89
G1 F1320 X78.89 Y94.00 E184.66757
G0 F9000 X79.24 Y94.35
G1 F1320 X94.35 Y79.24 E185.07193
G0 F9000 X94.70 Y79.60
G1 F1320 X79.60 Y94.70 E185.47628
G0 F9000 X79.95 Y95.06
G1 F1320 X95.06 Y79.95 E185.88065
G0 F9000 X95.41 Y80.30
G1 F1320 X80.30 Y95.41 E186.28502
G0 F9000 X80.66 Y95.77
G1 F1320 X95.77 Y80.66 E186.68938
G0 F9000 X96.12 Y81.01
G1 F1320 X81.01 Y96.12 E187.09374
G0 F9000 X81.36 Y96.47
G1 F1320 X96.47 Y81.36 E187.49810
G0 F9000 X96.83 Y81.72
G1 F1320 X81.72 Y96.83 E187.90246
G0 F9000 X82.07 Y97.18
G1 F1320 X97.18 Y82.07 E188.30681
G0 F9000 X97.53 Y82.42
G1 F1320 X82.42 Y97.53 E188.71117
G0 F9000 X82.78 Y97.89
G1 F1320 X97.89 Y82.78 E189.11553
G0 F9000 X98.24 Y83.13
G1 F1320 X83.13 Y98.24 E189.51989
G0 F9000 X83.48 Y98.59
G1 F1320 X98.59 Y83.48 E189.92426
G0 F9000 X98.95 Y83.84
G1 F1320 X83.84 Y98.95 E190.32863
G0 F9000 X84.19 Y99.30
G1 F1320 X99.30 Y84.19 E190.73298
G0 F9000 X99.65 Y84.55
G1 F1320 X84.55 Y99.66 E191.13734
G0 F9000 X84.90 Y100.01
G1 F1320 X100.01 Y84.90 E191.54170
G0 F9000 X100.36 Y85.25
G1 F1320 X85.25 Y100.36 E191.94605
G0 F9000 X85.61 Y100.72
G1 F1320 X100.72 Y85.61 E192.35042
G0 F9000 X101.07 Y85.96
G1 F1320 X85.96 Y101.07 E192.75477
G0 F9000 X86.31 Y101.42
G1 F1320 X101.42 Y86.31 E193.15914
G0 F9000 X101.78 Y86.67
G1 F1320 X86.67 Y101.78 E193.56350
G0 F9000 X87.02 Y102.13
G1 F1320 X102.13 Y87.02 E193.96787
G0 F9000 X102.48 Y87.38
G1 F1320 X87.37 Y102.48 E194.37222
G0 F9000 X87.73 Y102.84
G1 F1320 X102.84 Y87.73 E194.77659
G0 F9000 X103.19 Y88.08
G1 F1320 X88.08 Y103.19 E195.18094
G0 F9000 X88.44 Y103.54
G1 F1320 X103.54 Y88.44 E195.58527
G0 F9000 X103.90 Y88.79
G1 F1320 X88.79 Y103.90 E195.98959
G0 F9000 X89.14 Y104.25
G1 F1320 X104.25 Y89.14 E196.39392
G0 F9000 X104.60 Y89.50
G1 F1320 X89.50 Y104.60 E196.79823
G0 F9000 X89.85 Y104.96
G1 F1320 X104.96 Y89.85 E197.20256
G0 F9000 X105.31 Y90.20
G1 F1320 X90.20 Y105.31 E197.60687
G0 F9000 X90.56 Y105.67
G1 F1320 X105.66 Y90.56 E198.01120
G0 F9000 X106.02 Y90.91
G1 F1320 X90.91 Y106.02 E198.41551
G0 F9000 X91.26 Y106.37
G1 F1320 X106.37 Y91.26 E198.81983
G0 F9000 X106.72 Y91.62
G1 F1320 X91.62 Y106.72 E199.22416
G0 F9000 X91.97 Y107.08
G1 F1320 X107.08 Y91.97 E199.62849
G0 F9000 X107.43 Y92.33
G1 F1320 X92.32 Y107.43 E200.03281
G0 F9000 X92.68 Y107.79
G1 F1320 X107.78 Y92.68 E200.43713
G0 F9000 X108.14 Y93.03
G1 F1320 X93.03 Y108.14 E200.84145
G0 F9000 X93.39 Y108.49
G1 F1320 X108.49 Y93.39 E201.24576
G0 F9000 X108.85 Y93.74
G1 F1320 X93.74 Y108.85 E201.65009
G0 F9000 X94.09 Y109.20
G1 F1320 X109.20 Y94.09 E202.05440
G0 F9000 X109.55 Y94.45
G1 F1320 X94.45 Y109.55 E202.45873
G0 F9000 X94.80 Y109.91
G1 F1320 X109.91 Y94.80 E202.86305
G0 F9000 X110.26 Y95.15
G1 F1320 X95.15 Y110.26 E203.26738
G0 F9000 X95.51 Y110.61
G1 F1320 X110.61 Y95.51 E203.67171
G0 F9000 X110.97 Y95.86
G1 F1320 X95.86 Y110.97 E204.07602
G0 F9000 X96.21 Y111.32
G1 F1320 X111.32 Y96.21 E204.48035
G0 F9000 X111.67 Y96.57
G1 F1320 X96.57 Y111.67 E204.88466
G0 F9000 X96.92 Y112.03
G1 F1320 X112.03 Y96.92 E205.28898
G0 F9000 X112.38 Y97.28
G1 F1320 X97.27 Y112.38 E205.69330
G0 F9000 X97.63 Y112.74
G1 F1320 X112.73 Y97.63 E206.09762
G0 F9000 X113.09 Y97.98
G1 F1320 X97.98 Y113.09 E206.50195
G0 F9000 X98.33 Y113.44
G1 F1320 X113.44 Y98.33 E206.90628
G0 F9000 X113.80 Y98.69
G1 F1320 X98.69 Y113.80 E207.31060
G0 F9000 X99.04 Y114.15
G1 F1320 X114.15 Y99.04 E207.71491
G0 F9000 X114.50 Y99.40
G1 F1320 X99.39 Y114.50 E208.11924
G0 F9000 X99.75 Y114.86
G1 F1320 X114.86 Y99.75 E208.52355
G0 F9000 X115.21 Y100.10
G1 F1320 X100.10 Y115.21 E208.92789
G0 F9000 X100.46 Y115.56
G1 F1320 X115.56 Y100.46 E209.33221
G0 F9000 X115.92 Y100.81
G1 F1320 X100.81 Y115.92 E209.73653
G0 F9000 X101.16 Y116.27
G1 F1320 X116.27 Y101.16 E210.14084
G0 F9000 X116.62 Y101.52
G1 F1320 X101.52 Y116.62 E210.54517
G0 F9000 X101.87 Y116.98
G1 F1320 X116.98 Y101.87 E210.94950
G0 F9000 X117.33 Y102.22
G1 F1320 X102.22 Y117.33 E211.35381
G0 F9000 X102.58 Y117.69
G1 F1320 X117.69 Y102.58 E211.75813
G0 F9000 X118.04 Y102.93
G1 F1320 X102.93 Y118.04 E212.16245
G0 F9000 X103.28 Y118.39
G1 F1320 X118.39 Y103.28 E212.56679
G0 F9000 X118.75 Y103.64
G1 F1320 X103.64 Y118.75 E212.97110
G0 F9000 X103.99 Y119.10
G1 F1320 X119.10 Y103.99 E213.37543
G0 F9000 X119.45 Y104.35
G1 F1320 X104.34 Y119.45 E213.77974
G0 F9000 X104.70 Y119.81
G1 F1320 X119.81 Y104.70 E214.18406
G0 F9000 X120.16 Y105.05
G1 F1320 X105.05 Y120.16 E214.58839
G0 F9000 X105.41 Y120.51
G1 F1320 X120.51 Y105.41 E214.99272
G0 F9000 X120.87 Y105.76
G1 F1320 X105.76 Y120.87 E215.39704
G0 F9000 X106.11 Y121.22
G1 F1320 X121.22 Y106.11 E215.80136
G0 F9000 X121.57 Y106.47
G1 F1320 X106.47 Y121.57 E216.20568
G0 F9000 X106.82 Y121.93
G1 F1320 X121.93 Y106.82 E216.60999
G0 F9000 X122.28 Y107.17
G1 F1320 X107.17 Y122.28 E217.01432
G0 F9000 X107.53 Y122.64
G1 F1320 X122.63 Y107.53 E217.41863
G0 F9000 X122.99 Y107.88
G1 F1320 X107.88 Y122.99 E217.82296
G0 F9000 X108.23 Y123.34
G1 F1320 X123.34 Y108.23 E218.22728
G0 F9000 X123.69 Y108.59
G1 F1320 X108.59 Y123.70 E218.63161
G0 F9000 X108.94 Y124.05
G1 F1320 X124.05 Y108.94 E219.03594
G0 F9000 X124.40 Y109.30
G1 F1320 X109.30 Y124.40 E219.44025
G0 F9000 X109.65 Y124.76
G1 F1320 X124.76 Y109.65 E219.84458
G0 F9000 X125.11 Y110.00
G1 F1320 X110.00 Y125.11 E220.24889
G0 F9000 X110.36 Y125.46
G1 F1320 X125.46 Y110.36 E220.65321
G0 F9000 X125.82 Y110.71
G1 F1320 X110.71 Y125.82 E221.05753
G0 F9000 X111.06 Y126.17
G1 F1320 X126.17 Y111.06 E221.46185
G0 F9000 X126.52 Y111.42
G1 F1320 X111.42 Y126.52 E221.86618
G0 F9000 X111.77 Y126.88
G1 F1320 X126.88 Y111.77 E222.27051
G0 F9000 X127.23 Y112.12
G1 F1320 X112.12 Y127.23 E222.67483
G0 F9000 X112.48 Y127.58
G1 F1320 X127.58 Y112.48 E223.07914
G0 F9000 X127.94 Y112.83
G1 F1320 X112.83 Y127.94 E223.48347
G0 F9000 X113.18 Y128.29
G1 F1320 X128.29 Y113.19 E223.88778
G0 F9000 X128.65 Y113.54
G1 F1320 X113.54 Y128.65 E224.29211
G0 F9000 X113.89 Y129.00
G1 F1320 X129.00 Y113.89 E224.69642
G0 F9000 X129.35 Y114.25
G1 F1320 X114.25 Y129.35 E225.10075
G0 F9000 X114.60 Y129.71
G1 F1320 X129.71 Y114.60 E225.50507
G0 F9000 X130.06 Y114.95
G1 F1320 X114.95 Y130.06 E225.90940
G0 F9000 X115.31 Y130.41
G1 F1320 X130.41 Y115.31 E226.31373
G0 F9000 X130.77 Y115.66
G1 F1320 X115.66 Y130.77 E226.71804
G0 F9000 X116.01 Y131.12
G1 F1320 X131.12 Y116.01 E227.12236
G0 F9000 X131.47 Y116.37
G1 F1320 X116.37 Y131.47 E227.52668
G0 F9000 X116.72 Y131.83
G1 F1320 X131.83 Y116.72 E227.93102
G0 F9000 X132.18 Y117.07
G1 F1320 X117.07 Y132.18 E228.33533
G0 F9000 X117.43 Y132.53
G1 F1320 X132.53 Y117.43 E228.73966
G0 F9000 X132.89 Y117.78
G1 F1320 X117.78 Y132.89 E229.14397
G0 F9000 X118.13 Y133.24
G1 F1320 X133.24 Y118.13 E229.54829
G0 F9000 X133.59 Y118.49
G1 F1320 X118.49 Y133.59 E229.95262
G0 F9000 X118.84 Y133.95
G1 F1320 X133.95 Y118.84 E230.35693
G0 F9000 X134.30 Y119.19
G1 F1320 X119.19 Y134.30 E230.76126
G0 F9000 X119.55 Y134.66
G1 F1320 X134.66 Y119.55 E231.16557
G0 F9000 X135.01 Y119.90
G1 F1320 X119.90 Y135.01 E231.56991
G0 F9000 X120.25 Y135.36
G1 F1320 X135.36 Y120.26 E231.97422
G0 F9000 X135.72 Y120.61
G1 F1320 X120.61 Y135.72 E232.37855
G0 F9000 X120.96 Y136.07
G1 F1320 X136.07 Y120.96 E232.78286
G0 F9000 X136.42 Y121.32
G1 F1320 X121.32 Y136.42 E233.18719
G0 F9000 X121.67 Y136.78
G1 F1320 X136.78 Y121.67 E233.59151
G0 F9000 X137.13 Y122.02
G1 F1320 X122.02 Y137.13 E233.99583
G0 F9000 X122.38 Y137.48
G1 F1320 X137.48 Y122.38 E234.40015
